Numix-uTouch/48x48/apps/DeSmuME.svg

<?xml version="1.0" encoding="UTF-8" standalone="no"?>
<svg
   xmlns:dc="http://purl.org/dc/elements/1.1/"
   xmlns:cc="http://creativecommons.org/ns#"
   xmlns:rdf="http://www.w3.org/1999/02/22-rdf-syntax-ns#"
   xmlns:svg="http://www.w3.org/2000/svg"
   xmlns="http://www.w3.org/2000/svg"
   xmlns:xlink="http://www.w3.org/1999/xlink"
   xmlns:sodipodi="http://sodipodi.sourceforge.net/DTD/sodipodi-0.dtd"
   xmlns:inkscape="http://www.inkscape.org/namespaces/inkscape"
   width="48"
   viewBox="0 0 13.546667 13.546667"
   height="48"
   id="svg2"
   version="1.1"
   inkscape:version="0.48.4 r9939"
   sodipodi:docname="DeSmuME.svg">
  <metadata
     id="metadata28">
    <rdf:RDF>
      <cc:Work
         rdf:about="">
        <dc:format>image/svg+xml</dc:format>
        <dc:type
           rdf:resource="http://purl.org/dc/dcmitype/StillImage" />
        <dc:title />
      </cc:Work>
    </rdf:RDF>
  </metadata>
  <sodipodi:namedview
     pagecolor="#ffffff"
     bordercolor="#666666"
     borderopacity="1"
     objecttolerance="10"
     gridtolerance="10"
     guidetolerance="10"
     inkscape:pageopacity="0"
     inkscape:pageshadow="2"
     inkscape:window-width="1280"
     inkscape:window-height="998"
     id="namedview26"
     showgrid="true"
     inkscape:zoom="3.9999998"
     inkscape:cx="66.518726"
     inkscape:cy="16.430229"
     inkscape:window-x="0"
     inkscape:window-y="0"
     inkscape:window-maximized="1"
     inkscape:current-layer="svg2"
     showguides="true"
     inkscape:guide-bbox="true">
    <inkscape:grid
       type="xygrid"
       id="grid3026" />
  </sodipodi:namedview>
  <defs
     id="defs4">
    <linearGradient
       id="linearGradient4460">
      <stop
         offset="0"
         style="stop-color:#ca514c;stop-opacity:1;"
         id="stop7" />
      <stop
         offset="1"
         style="stop-color:#e6645f;stop-opacity:1;"
         id="stop9" />
    </linearGradient>
    <linearGradient
       gradientTransform="matrix(1.10525,0,0,1.10525,-134.27873,-295.7618)"
       xlink:href="#linearGradient4460"
       id="linearGradient5224"
       y1="279.096"
       y2="268.33"
       gradientUnits="userSpaceOnUse"
       x2="0" />
    <linearGradient
       inkscape:collect="always"
       xlink:href="#linearGradient4460"
       id="linearGradient3006"
       gradientUnits="userSpaceOnUse"
       gradientTransform="matrix(1.10525,0,0,1.10525,-134.27873,-295.7618)"
       y1="279.096"
       x2="0"
       y2="268.33" />
    <linearGradient
       inkscape:collect="always"
       xlink:href="#1"
       id="linearGradient3013"
       gradientUnits="userSpaceOnUse"
       y1="1050.36"
       x2="0"
       y2="1006.36"
       gradientTransform="translate(0,-1004.3622)" />
    <linearGradient
       id="1">
      <stop
         stop-color="#dbdbdb"
         id="stop8" />
      <stop
         offset="1"
         stop-color="#f9f9f9"
         id="stop10" />
    </linearGradient>
    <linearGradient
       y2="1006.36"
       x2="0"
       y1="1050.36"
       gradientTransform="translate(0,-1004.3622)"
       gradientUnits="userSpaceOnUse"
       id="linearGradient3105"
       xlink:href="#1"
       inkscape:collect="always" />
    <linearGradient
       inkscape:collect="always"
       xlink:href="#linearGradient4460"
       id="linearGradient3048"
       gradientUnits="userSpaceOnUse"
       gradientTransform="matrix(0.28222223,0,0,0.28222223,0,-283.45334)"
       y1="1050.36"
       x2="0"
       y2="1006.36" />
    <radialGradient
       r="128"
       cy="160"
       cx="148.004"
       gradientTransform="matrix(0.05167489,0,0,0.05167489,-0.87511113,-1.494755)"
       gradientUnits="userSpaceOnUse"
       id="radialGradient3075"
       xlink:href="#radial0"
       inkscape:collect="always" />
    <radialGradient
       cx="148.004"
       cy="160"
       gradientTransform="matrix(0.1831,0,0,0.1831,-3.10029,-5.29688)"
       id="radial0"
       r="128"
       gradientUnits="userSpaceOnUse">
      <stop
         offset="0"
         style="stop-color:#ffa686;stop-opacity:1;"
         id="stop7-4" />
      <stop
         offset="1"
         style="stop-color:#d75050;stop-opacity:1;"
         id="stop9-5" />
    </radialGradient>
    <radialGradient
       r="128"
       cy="160"
       cx="148.004"
       gradientTransform="matrix(0.05167489,0,0,0.05167489,-0.87511111,-1.4947553)"
       gradientUnits="userSpaceOnUse"
       id="radialGradient3030"
       xlink:href="#radial0"
       inkscape:collect="always" />
  </defs>
  <path
     inkscape:connector-curvature="0"
     style="fill:url(#radialGradient3030);fill-opacity:1"
     d="m 13.387775,3.2589269 0,7.0290971 c 0,2.892777 0,3.100034 -3.100035,3.100034 l -7.0279931,0 c -3.10113801,0 -3.10113801,-0.207257 -3.10113801,-3.100034 l 0,-7.0290971 c 0,-2.89277799 0,-3.10003489 3.10113801,-3.10003489 l 7.0279931,0 c 3.100035,0 3.100035,0.2072569 3.100035,3.10003489 z"
     id="path11" />
  <path
     inkscape:connector-curvature="0"
     id="path15"
     d="m 10.799271,13.388053 c 0.717682,-0.0033 1.235825,-0.02315 1.611753,-0.124574 l -1.193932,-2.04611 -1.2655876,2.170684 0.3362386,0 c 0.180799,0 0.350573,0 0.511528,0 z m 0.417821,-2.170684 -1.4463868,-2.48047 -1.4474913,2.48047 z m 0,0 2.159662,0 c 0.0088,-0.274506 0.01102,-0.582084 0.01102,-0.930452 l 0,-0.309784 -0.723192,-1.240234 z M 12.664584,8.736899 11.217092,6.25643 9.7707052,8.736899 z m 0,0 0.723194,0 0,-1.2402341 z m -2.8938788,0 L 8.3232139,6.25643 6.876825,8.736899 z m -2.8938802,0 -1.4474922,2.48047 2.8938811,0 z m 0,0 L 5.4293328,6.25643 3.9829439,8.736899 z m -2.8938811,0 -1.447491,2.48047 2.8938799,0 z m 0,0 -1.447491,-2.480469 -1.446389,2.480469 z m -2.89388,0 -0.93045201,1.594116 c 0,0.329626 0.0033,0.623975 0.01102,0.886354 l 2.36581601,0 z m 0,0 -0.93045201,-1.5941142 0,1.5941142 z m 1.446389,2.48047 -1.217084,2.086899 c 0.450894,0.08268 1.07487,0.08379 1.94138,0.08379 l 0.5423961,0 z m 0,-4.960939 -1.446389,-2.4804686 -0.93045201,1.5941145 0,0.8863541 z m 0,0 2.8938799,0 L 3.9829439,3.7759614 z M 3.9829439,3.7759614 2.5354529,1.2954927 1.0890639,3.7759614 z m 0,0 2.8938811,0 L 5.4293328,1.2954927 z M 5.4293328,1.2954927 4.76567,0.15888671 l -1.5059211,0 c -0.02205,0 -0.03969,0 -0.06063,0 L 2.5354569,1.2954927 z m 0,0 2.8938811,0 -0.6636631,-1.13660599 -1.5665549,0 z m 2.8938811,0 2.8938781,0 -0.663663,-1.13660599 c -0.0882,0 -0.171979,0 -0.265686,0 l -1.3008658,0 z m 0,0 -1.4463889,2.4804687 2.8938802,0 z m 1.4474913,2.4804687 2.8938788,0 -1.447492,-2.4804687 z m 0,0 -1.4474913,2.4804686 2.8938781,0 z m 1.4463868,2.4804686 2.170686,0 0,-1.240234 -0.723194,-1.2402346 z m 1.447492,-2.4804686 0.723194,0 0,-0.5170399 c 0,-0.2579689 -0.0022,-0.4938889 -0.0066,-0.71217 z M 8.3232139,6.25643 6.876825,3.7759614 5.4293328,6.25643 z m 2.8938781,-4.9609373 2.062648,0 C 13.123195,0.51717661 12.747266,0.27133471 11.859809,0.19416451 z m -8.6816391,0 -0.650434,-1.11565979 C 0.85204089,0.23826191 0.43421989,0.46095251 0.26664989,1.2954927 z M 1.0890639,3.7759614 0.17514889,2.2083052 c -0.01213,0.3031685 -0.01654,0.6515363 -0.01654,1.0506163 l 0,0.5170399 z m 4.3402689,7.4414076 -1.26559,2.170684 2.532283,0 z m 2.8938811,0 -1.2655909,2.170684 2.5322841,0 z m -7.59133801,1.868619 -0.451996,-0.775009 c 0.08268,0.371519 0.221588,0.615157 0.451996,0.775009 z"
     style="fill:#ffffff;fill-opacity:0.05100002" />
  <path
     style="opacity:1;fill:#f9f9f9;fill-opacity:1;stroke-width:0;stroke-miterlimit:4;stroke-dasharray:none"
     d="M 14 12 C 12.892 12 12 12.892 12 14 L 12 23.4375 C 12 23.198377 12.198377 23 12.4375 23 L 35.5625 23 C 35.801623 23 36 23.198377 36 23.4375 L 36 14 C 36 12.892 35.108 12 34 12 L 14 12 z M 17 14 L 31 14 L 31 22 L 17 22 L 17 14 z M 14.5 16 C 14.776142 16 15 16.223858 15 16.5 C 15 16.223858 15.223858 16 15.5 16 C 15.776142 16 16 16.223858 16 16.5 C 16 16.776142 15.776142 17 15.5 17 C 15.776142 17 16 17.223858 16 17.5 C 16 17.776142 15.776142 18 15.5 18 C 15.776142 18 16 18.223858 16 18.5 C 16 18.776142 15.776142 19 15.5 19 C 15.223858 19 15 18.776142 15 18.5 C 15 18.776142 14.776142 19 14.5 19 C 14.223858 19 14 18.776142 14 18.5 C 14 18.223858 14.223858 18 14.5 18 C 14.223858 18 14 17.776142 14 17.5 C 14 17.223858 14.223858 17 14.5 17 C 14.223858 17 14 16.776142 14 16.5 C 14 16.223858 14.223858 16 14.5 16 z M 14.5 17 C 14.776142 17 15 17.223858 15 17.5 C 15 17.223858 15.223858 17 15.5 17 C 15.223858 17 15 16.776142 15 16.5 C 15 16.776142 14.776142 17 14.5 17 z M 15 17.5 C 15 17.776142 14.776142 18 14.5 18 C 14.776142 18 15 18.223858 15 18.5 C 15 18.223858 15.223858 18 15.5 18 C 15.223858 18 15 17.776142 15 17.5 z M 32.5 16 C 32.776142 16 33 16.223858 33 16.5 C 33 16.223858 33.223858 16 33.5 16 C 33.776142 16 34 16.223858 34 16.5 C 34 16.776142 33.776142 17 33.5 17 C 33.776142 17 34 17.223858 34 17.5 C 34 17.776142 33.776142 18 33.5 18 C 33.776142 18 34 18.223858 34 18.5 C 34 18.776142 33.776142 19 33.5 19 C 33.223858 19 33 18.776142 33 18.5 C 33 18.776142 32.776142 19 32.5 19 C 32.223858 19 32 18.776142 32 18.5 C 32 18.223858 32.223858 18 32.5 18 C 32.223858 18 32 17.776142 32 17.5 C 32 17.223858 32.223858 17 32.5 17 C 32.223858 17 32 16.776142 32 16.5 C 32 16.223858 32.223858 16 32.5 16 z M 32.5 17 C 32.776142 17 33 17.223858 33 17.5 C 33 17.223858 33.223858 17 33.5 17 C 33.223858 17 33 16.776142 33 16.5 C 33 16.776142 32.776142 17 32.5 17 z M 33 17.5 C 33 17.776142 32.776142 18 32.5 18 C 32.776142 18 33 18.223858 33 18.5 C 33 18.223858 33.223858 18 33.5 18 C 33.223858 18 33 17.776142 33 17.5 z M 12 24.5625 L 12 34 C 12 35.108 12.892 36 14 36 L 34 36 C 35.108 36 36 35.108 36 34 L 36 24.5625 C 36 24.801623 35.801623 25 35.5625 25 L 12.4375 25 C 12.198377 25 12 24.801623 12 24.5625 z M 15 26 L 17 26 L 17 27 L 15 27 L 15 26 z M 18 26 L 30 26 L 30 34 L 18 34 L 18 26 z M 31 26 L 33 26 L 33 27 L 31 27 L 31 26 z M 15 29 L 16 29 L 16 30 L 17 30 L 17 31 L 16 31 L 16 32 L 15 32 L 15 31 L 14 31 L 14 30 L 15 30 L 15 29 z M 32.5 29 C 32.776142 29 33 29.223858 33 29.5 C 33 29.776142 32.776142 30 32.5 30 C 32.223858 30 32 29.776142 32 29.5 C 32 29.223858 32.223858 29 32.5 29 z M 31.5 30 C 31.776142 30 32 30.223858 32 30.5 C 32 30.776142 31.776142 31 31.5 31 C 31.223858 31 31 30.776142 31 30.5 C 31 30.223858 31.223858 30 31.5 30 z M 33.5 30 C 33.776142 30 34 30.223858 34 30.5 C 34 30.776142 33.776142 31 33.5 31 C 33.223858 31 33 30.776142 33 30.5 C 33 30.223858 33.223858 30 33.5 30 z M 32.5 31 C 32.776142 31 33 31.223858 33 31.5 C 33 31.776142 32.776142 32 32.5 32 C 32.223858 32 32 31.776142 32 31.5 C 32 31.223858 32.223858 31 32.5 31 z "
     transform="scale(0.28222223,0.28222223)"
     id="rect3028" />
</svg>

<svg xmlns="http://www.w3.org/2000/svg" viewBox="0 0 48 48"><defs><radialGradient id="0" cx="24" cy="24" r="23.437" gradientUnits="userSpaceOnUse"><stop stop-color="#e6645f"/><stop offset="1" stop-color="#c6443f"/></radialGradient></defs><path d="m 47.44 11.547 l 0 24.906 c 0 10.25 0 10.984 -10.984 10.984 l -24.902 0 c -10.988 0 -10.988 -0.734 -10.988 -10.984 l 0 -24.906 c 0 -10.25 0 -10.984 10.988 -10.984 l 24.902 0 c 10.984 0 10.984 0.734 10.984 10.984" fill="url(#0)"/><path d="m 14 12 c -1.105 0 -2 0.895 -2 2 l 0 9.438 c 0 -0.242 0.199 -0.438 0.438 -0.438 l 23.13 0 c 0.238 0 0.438 0.195 0.438 0.438 l 0 -9.438 c 0 -1.105 -0.895 -2 -2 -2 m -17 2 l 14 0 l 0 8 l -14 0 m -2.5 -6 c 0.277 0 0.5 0.223 0.5 0.5 c 0 -0.277 0.223 -0.5 0.5 -0.5 c 0.277 0 0.5 0.223 0.5 0.5 c 0 0.277 -0.223 0.5 -0.5 0.5 c 0.277 0 0.5 0.223 0.5 0.5 c 0 0.277 -0.223 0.5 -0.5 0.5 c 0.277 0 0.5 0.223 0.5 0.5 c 0 0.277 -0.223 0.5 -0.5 0.5 c -0.277 0 -0.5 -0.223 -0.5 -0.5 c 0 0.277 -0.223 0.5 -0.5 0.5 c -0.277 0 -0.5 -0.223 -0.5 -0.5 c 0 -0.277 0.223 -0.5 0.5 -0.5 c -0.277 0 -0.5 -0.223 -0.5 -0.5 c 0 -0.277 0.223 -0.5 0.5 -0.5 c -0.277 0 -0.5 -0.223 -0.5 -0.5 c 0 -0.277 0.223 -0.5 0.5 -0.5 m 0 1 c 0.277 0 0.5 0.223 0.5 0.5 c 0 -0.277 0.223 -0.5 0.5 -0.5 c -0.277 0 -0.5 -0.223 -0.5 -0.5 c 0 0.277 -0.223 0.5 -0.5 0.5 m 0.5 0.5 c 0 0.277 -0.223 0.5 -0.5 0.5 c 0.277 0 0.5 0.223 0.5 0.5 c 0 -0.277 0.223 -0.5 0.5 -0.5 c -0.277 0 -0.5 -0.223 -0.5 -0.5 m 17.5 -1.5 c 0.277 0 0.5 0.223 0.5 0.5 c 0 -0.277 0.223 -0.5 0.5 -0.5 c 0.277 0 0.5 0.223 0.5 0.5 c 0 0.277 -0.223 0.5 -0.5 0.5 c 0.277 0 0.5 0.223 0.5 0.5 c 0 0.277 -0.223 0.5 -0.5 0.5 c 0.277 0 0.5 0.223 0.5 0.5 c 0 0.277 -0.223 0.5 -0.5 0.5 c -0.277 0 -0.5 -0.223 -0.5 -0.5 c 0 0.277 -0.223 0.5 -0.5 0.5 c -0.277 0 -0.5 -0.223 -0.5 -0.5 c 0 -0.277 0.223 -0.5 0.5 -0.5 c -0.277 0 -0.5 -0.223 -0.5 -0.5 c 0 -0.277 0.223 -0.5 0.5 -0.5 c -0.277 0 -0.5 -0.223 -0.5 -0.5 c 0 -0.277 0.223 -0.5 0.5 -0.5 m 0 1 c 0.277 0 0.5 0.223 0.5 0.5 c 0 -0.277 0.223 -0.5 0.5 -0.5 c -0.277 0 -0.5 -0.223 -0.5 -0.5 c 0 0.277 -0.223 0.5 -0.5 0.5 m 0.5 0.5 c 0 0.277 -0.223 0.5 -0.5 0.5 c 0.277 0 0.5 0.223 0.5 0.5 c 0 -0.277 0.223 -0.5 0.5 -0.5 c -0.277 0 -0.5 -0.223 -0.5 -0.5 m -21 7.06 l 0 9.438 c 0 1.105 0.895 2 2 2 l 20 0 c 1.105 0 2 -0.895 2 -2 l 0 -9.438 c 0 0.238 -0.191 0.438 -0.438 0.438 l -23.12 0 c -0.238 0 -0.438 -0.199 -0.438 -0.438 m 3 1.438 l 2 0 l 0 1 l -2 0 m 3 -1 l 12 0 l 0 8 l -12 0 m 13 -8 l 2 0 l 0 1 l -2 0 m -16 2 l 1 0 l 0 1 l 1 0 l 0 1 l -1 0 l 0 1 l -1 0 l 0 -1 l -1 0 l 0 -1 l 1 0 m 17.5 -1 c 0.277 0 0.5 0.223 0.5 0.5 c 0 0.277 -0.223 0.5 -0.5 0.5 c -0.277 0 -0.5 -0.223 -0.5 -0.5 c 0 -0.277 0.223 -0.5 0.5 -0.5 m -1 1 c 0.277 0 0.5 0.223 0.5 0.5 c 0 0.277 -0.223 0.5 -0.5 0.5 c -0.277 0 -0.5 -0.223 -0.5 -0.5 c 0 -0.277 0.223 -0.5 0.5 -0.5 m 2 0 c 0.277 0 0.5 0.223 0.5 0.5 c 0 0.277 -0.223 0.5 -0.5 0.5 c -0.277 0 -0.5 -0.223 -0.5 -0.5 c 0 -0.277 0.223 -0.5 0.5 -0.5 m -1 1 c 0.277 0 0.5 0.223 0.5 0.5 c 0 0.277 -0.223 0.5 -0.5 0.5 c -0.277 0 -0.5 -0.223 -0.5 -0.5 c 0 -0.277 0.223 -0.5 0.5 -0.5 m 0 0" fill="#fff"/><path d="m 38.27 47.44 c 2.543 -0.012 4.379 -0.082 5.711 -0.441 l -4.23 -7.25 -4.484 7.691 1.191 0 c 0.641 0 1.242 0 1.813 0 z m 1.48 -7.691 -5.125 -8.789 -5.129 8.789 z m 0 0 7.652 0 c 0.031 -0.973 0.039 -2.063 0.039 -3.297 l 0 -1.098 -2.563 -4.395 z m 5.129 -8.789 -5.129 -8.789 -5.125 8.789 z m 0 0 2.563 0 0 -4.395 z m -10.254 0 -5.129 -8.789 -5.125 8.789 z m -10.254 0 -5.129 8.789 10.254 0 z m 0 0 -5.129 -8.789 -5.125 8.789 z m -10.254 0 -5.129 8.789 10.254 0 z m 0 0 -5.129 -8.789 -5.125 8.789 z m -10.254 0 -3.297 5.648 c 0 1.168 0.012 2.211 0.039 3.141 l 8.383 0 z m 0 0 -3.297 -5.648 0 5.648 z m 5.125 8.789 -4.313 7.395 c 1.598 0.293 3.809 0.297 6.879 0.297 l 1.922 0 z m 0 -17.578 -5.125 -8.789 -3.297 5.648 0 3.141 z m 0 0 10.254 0 -5.125 -8.789 z m 5.129 -8.789 -5.129 -8.789 -5.125 8.789 z m 0 0 10.254 0 -5.129 -8.789 z m 5.125 -8.789 -2.352 -4.03 -5.336 0 c -0.078 0 -0.141 0 -0.215 0 l -2.352 4.03 z m 0 0 10.254 0 -2.352 -4.03 -5.551 0 z m 10.254 0 10.254 0 l -2.352 -4.03 c -0.313 0 -0.609 0 -0.941 0 l -4.609 0 z m 0 0 -5.125 8.789 10.254 0 z m 5.129 8.789 10.254 0 -5.129 -8.789 z m 0 0 -5.129 8.789 10.254 0 z m 5.125 8.789 7.691 0 0 -4.395 -2.563 -4.395 z m 5.129 -8.789 2.563 0 0 -1.832 c 0 -0.914 -0.008 -1.75 -0.023 -2.523 z m -15.383 8.789 -5.125 -8.789 -5.129 8.789 z m 10.254 -17.578 7.309 0 c -0.555 -2.758 -1.887 -3.629 -5.03 -3.902 z m -30.762 0 l -2.305 -3.953 c -3.66 0.207 -5.141 0.996 -5.734 3.953 z m -5.125 8.789 l -3.238 -5.555 c -0.043 1.074 -0.059 2.309 -0.059 3.723 l 0 1.832 z m 15.379 26.367 -4.484 7.691 8.973 0 z m 10.254 0 -4.484 7.691 8.973 0 z m -26.898 6.621 -1.602 -2.746 c 0.293 1.316 0.785 2.18 1.602 2.746 z" fill="#fff" fill-opacity="0.077"/></svg>
